symbols/web/flood/materialsymbolsoutlined/flood_wght700fill1_40px.svg

<svg xmlns="http://www.w3.org/2000/svg" height="40" width="40"><path d="M2.833 37.75v-3.875q1.834-.083 2.834-.875t3.083-.792q2.083 0 3.188.834 1.104.833 2.437.833 1.333 0 2.437-.833 1.105-.834 3.188-.834 2.042 0 3.188.834 1.145.833 2.437.833 1.375 0 2.479-.958 1.104-.959 3.146-.959 2.083 0 3.083.917t2.834 1v3.875q-2.042 0-3.292-.979t-2.625-.979q-1.375 0-2.458.979-1.084.979-3.167.979-2 0-3.125-.833-1.125-.834-2.5-.834t-2.479.834q-1.104.833-3.146.833t-3.146-.833q-1.104-.834-2.479-.834t-2.625.834q-1.25.833-3.292.833Zm11.542-8.333q-2.042 0-3.146-.834-1.104-.833-2.479-.833-1.417 0-2.625.833-1.208.834-3.292.834v-3.834q1.834-.083 2.792-.833.958-.75 3.042-.833.25 0 .479.041.229.042.396.084l-1.459-5.417-2.25 2.667-3.041-2.334 13.375-16.25 19.625 7.417-1.375 3.583-3.292-1.166 3.208 11.916q.709.292 1.438.688.729.396 1.396.437v3.834q-2.084 0-3.313-.979-1.229-.98-2.604-.98t-2.458.98q-1.084.979-3.167.979-2.042 0-3.146-.834-1.104-.833-2.479-.833t-2.479.833q-1.104.834-3.146.834ZM18.75 24q.292-.083.583-.083H20q2.042 0 2.979.729.938.729 2.479.937l-2.625-9.833-5.916 1.583Z"/></svg>

<svg xmlns="http://www.w3.org/2000/svg" height="40" width="40"><path d="M2.833 37.75V33.875Q4.667 33.792 5.667 33Q6.667 32.208 8.75 32.208Q10.833 32.208 11.938 33.042Q13.042 33.875 14.375 33.875Q15.708 33.875 16.812 33.042Q17.917 32.208 20 32.208Q22.042 32.208 23.188 33.042Q24.333 33.875 25.625 33.875Q27 33.875 28.104 32.917Q29.208 31.958 31.25 31.958Q33.333 31.958 34.333 32.875Q35.333 33.792 37.167 33.875V37.75Q35.125 37.75 33.875 36.771Q32.625 35.792 31.25 35.792Q29.875 35.792 28.792 36.771Q27.708 37.75 25.625 37.75Q23.625 37.75 22.5 36.917Q21.375 36.083 20 36.083Q18.625 36.083 17.521 36.917Q16.417 37.75 14.375 37.75Q12.333 37.75 11.229 36.917Q10.125 36.083 8.75 36.083Q7.375 36.083 6.125 36.917Q4.875 37.75 2.833 37.75ZM14.375 29.417Q12.333 29.417 11.229 28.583Q10.125 27.75 8.75 27.75Q7.333 27.75 6.125 28.583Q4.917 29.417 2.833 29.417V25.583Q4.667 25.5 5.625 24.75Q6.583 24 8.667 23.917Q8.917 23.917 9.146 23.958Q9.375 24 9.542 24.042L8.083 18.625L5.833 21.292L2.792 18.958L16.167 2.708L35.792 10.125L34.417 13.708L31.125 12.542L34.333 24.458Q35.042 24.75 35.771 25.146Q36.5 25.542 37.167 25.583V29.417Q35.083 29.417 33.854 28.438Q32.625 27.458 31.25 27.458Q29.875 27.458 28.792 28.438Q27.708 29.417 25.625 29.417Q23.583 29.417 22.479 28.583Q21.375 27.75 20 27.75Q18.625 27.75 17.521 28.583Q16.417 29.417 14.375 29.417ZM18.75 24Q19.042 23.917 19.333 23.917Q19.625 23.917 20 23.917Q22.042 23.917 22.979 24.646Q23.917 25.375 25.458 25.583L22.833 15.75L16.917 17.333Z"/></svg>
